X:669
T:Reel 669
M:4/4
K:Ador
L:1/8
DB,|A,2A,B, G,F,G,B,|A,G,A,B, CA,CD|EDEF GFGB,|DB,G,B, D2B,D|A,G,A,B, CB,CD|EDEF G2FG|AFGE DB,G,B,|A,2B,G, A,2|CD|EAAB AGAB|AGBG AGED|EAAB AFAB|ABcB G2ED|EAAG ABAG|EDEF G2FG|AFGE DB,G,B,|A,CB,G, A,2|
